frontend/public/svg/hand gestures/zoom-out.svg

<svg width="126" height="138" viewBox="0 0 126 138" fill="none" xmlns="http://www.w3.org/2000/svg">
<g clip-path="url(#clip0)">
<path d="M124.804 70.1724C124.557 66.6721 123.783 63.2298 122.507 59.961C121.703 57.5656 120.084 55.5282 117.933 54.2032C115.78 52.8781 113.233 52.3495 110.731 52.7091C108.992 52.9843 107.296 53.4842 105.685 54.1964C105.003 54.4622 104.298 54.7359 103.579 54.984C102.816 53.1879 101.647 51.5938 100.162 50.3278C98.6776 49.0618 96.9186 48.1586 95.0244 47.6895C90.413 46.4549 86.6148 47.4735 83.7354 50.7158C82.1891 48.2296 80.0849 45.7113 76.3897 45.0713C73.236 44.522 70.6795 45.7441 67.8835 47.8076C67.7917 46.4949 67.709 45.2105 67.6269 43.9477C67.4182 40.7408 67.222 37.7125 66.9194 34.6684C66.7966 33.4366 66.6779 32.2036 66.5623 30.9693C66.0505 25.5873 65.521 20.0215 64.545 14.6232C64.0285 11.7622 62.7111 8.61308 60.5176 4.99535C58.1489 1.08751 54.1545 0.236249 49.8364 2.71918C45.9122 4.97632 44.9828 8.86117 44.612 11.9939C44.3271 14.3994 44.2836 16.8652 44.237 19.2503L44.2142 20.4252C44.1749 22.3001 44.1327 24.1757 44.088 26.052C43.941 32.4769 43.7883 39.121 43.7903 45.6574C43.7903 50.5235 43.9417 55.2984 44.0992 60.3528C44.1649 62.337 44.2245 64.3368 44.2777 66.3597C44.2401 66.3281 44.2027 66.2973 44.1655 66.2671C43.7251 65.9035 43.3326 65.5793 42.9237 65.278C36.2763 60.3837 29.1478 58.6391 21.743 60.0929C20.118 60.3679 18.5905 61.0539 17.3054 62.0857C16.0203 63.1175 15.0201 64.4609 14.4005 65.9882C13.7936 67.6074 13.6047 69.3539 13.8509 71.0657C14.0973 72.7774 14.7709 74.3992 15.8097 75.7821C16.8757 77.1552 18.089 78.4081 19.4276 79.5173L19.8522 79.8967C24.7412 84.1412 28.8101 89.2462 31.8566 94.959C36.0132 102.974 40.6961 111.446 46.1766 120.859C47.6021 123.308 49.8868 125.317 51.7179 126.794C55.1709 129.579 59.302 131.858 64.7174 133.967C69.5113 135.854 74.6169 136.823 79.7685 136.822C85.6112 136.751 91.3975 135.668 96.8694 133.618C100.907 132.104 104.644 129.888 107.91 127.072C113.821 122.159 117.94 115.449 120.503 106.558C123.928 94.749 125.381 82.4551 124.804 70.1724ZM55.9188 120.377C54.7384 119.591 53.7073 118.602 52.8739 117.454C50.8317 114.519 48.9416 111.48 47.2111 108.35C44.5785 103.463 41.9203 98.219 39.31 92.7609C35.3116 84.4018 30.1908 77.8148 23.655 72.6231C22.553 71.7384 21.6285 70.6535 20.93 69.4255C20.7366 69.1183 20.6112 68.7737 20.5621 68.4141C20.513 68.055 20.5412 67.6888 20.6451 67.3416C20.8091 66.9353 21.0561 66.5678 21.3703 66.2628C21.6845 65.9577 22.0588 65.7215 22.4696 65.5694C23.7574 65.0015 25.1504 64.7108 26.5579 64.7162C27.3258 64.7191 28.0919 64.7949 28.8454 64.9426C34.589 66.044 38.4279 68.1889 40.922 71.6925C41.7865 73.0622 42.4542 74.5469 42.9054 76.1031C43.0544 76.5376 43.2033 76.9707 43.3582 77.3954C43.9168 78.9201 44.7003 80.3292 46.6319 80.3292H46.672C48.3897 80.3115 49.5817 79.2712 50.0293 77.3993C50.2769 76.3964 50.3977 75.366 50.3889 74.3329C50.2577 66.3755 50.0863 57.8962 49.8723 48.4114C49.8316 46.5967 49.7583 44.753 49.688 42.9697C49.5528 39.5706 49.4138 36.0552 49.4913 32.6081C49.6402 26.0133 50.0915 19.3114 50.5287 12.8307L50.5774 12.1219C50.8058 8.72203 52.0214 7.0254 54.6336 6.47735C56.7214 7.87535 57.9927 10.1043 58.6287 13.4772C59.5017 17.9755 60.1046 22.5219 60.4342 27.0923C60.916 34.2326 61.2729 41.5028 61.6155 48.5335C61.7652 51.5794 61.9185 54.6245 62.0751 57.6691C62.1624 59.3296 62.5419 61.0952 64.696 61.5986C66.8288 62.098 67.9774 60.2911 68.7381 58.6615C68.9212 58.2677 69.1017 57.8739 69.2829 57.4801C70.0869 55.5379 71.097 53.6879 72.2974 51.9622C73.3476 50.5721 74.6819 49.8954 75.948 50.1048C77.241 50.3174 78.3055 51.4116 78.8693 53.1056C79.273 54.5546 79.4896 56.0495 79.5125 57.5536C79.5408 58.0327 79.5703 58.5098 79.6097 58.9824C79.6281 59.3812 79.6097 59.7808 79.5545 60.1763C79.4403 60.8025 79.4633 61.4458 79.6202 62.0626C79.9936 63.043 80.7314 63.8411 81.6798 64.2896C81.9672 64.4153 82.277 64.4827 82.5908 64.4877C82.9038 64.4928 83.2156 64.4355 83.507 64.3191C83.8207 64.1792 84.1036 63.9786 84.3392 63.7287C84.5742 63.4788 84.758 63.1847 84.8788 62.8633C85.0507 62.4132 85.1872 61.9506 85.289 61.4798C85.3776 61.0748 85.4924 60.6757 85.6316 60.2852C85.8285 59.7766 86.0136 59.262 86.2006 58.7474C86.7263 57.1654 87.3801 55.6289 88.1552 54.1531C89.2618 52.1906 90.6053 51.6767 92.9425 52.3206C95.9164 53.1397 97.7856 54.9984 98.3481 57.6973C98.6336 59.2893 98.7951 60.9011 98.8312 62.5181C98.8548 63.0117 98.8791 63.5026 98.91 63.9962C99.0058 65.5268 99.3694 67.1611 101.355 67.6717C103.317 68.1804 104.362 66.9406 105.201 65.5261C105.405 65.1822 105.605 64.835 105.805 64.4865C106.413 63.374 107.094 62.3035 107.845 61.2822C109.373 59.304 111.196 58.3064 112.845 58.5479C114.409 58.775 115.725 60.0772 116.552 62.2149C117.946 65.5967 118.777 69.1839 119.013 72.8338C119.336 81.3584 118.277 90.2721 115.576 101.736C114.329 106.952 112.074 111.873 108.94 116.226C105.37 121.236 100.133 124.758 92.9307 126.99C80.0383 130.984 67.9301 128.818 55.9188 120.377Z" fill="black"/>
<path d="M4.26715 51.067C4.44961 51.067 4.64421 51.0622 4.85074 51.0525C9.32956 50.8399 13.8708 50.4526 18.263 50.0779L20.9541 49.8495C21.8546 49.774 22.8469 49.6224 23.3766 49.0671C23.7376 48.6897 24.9085 47.3606 24.8514 46.0886C24.814 45.2433 23.526 44.1544 22.5927 43.9595C21.3393 43.7919 20.0649 43.8896 18.8518 44.2463L18.0707 44.4235C15.4496 45.1474 12.7291 45.4468 10.0133 45.3102L35.721 14.6533C35.8162 15.3182 35.9002 15.9529 35.9835 16.5639C36.2244 18.361 36.4316 19.9113 36.7709 21.4681C37.3183 23.9681 38.6251 25.3274 40.2417 25.1246C41.4487 24.969 42.8108 24.0698 42.4347 20.6726C41.9648 16.4379 41.2905 12.2308 40.6926 8.67476C40.2332 5.94047 39.565 5.4036 36.7546 5.49942C33.3469 5.61166 29.8842 5.7672 26.5355 5.9175C24.6781 6.00107 22.8203 6.08224 20.9624 6.161C20.0514 6.19907 18.3562 6.26865 18.196 8.18119C18.1516 8.53312 18.1783 8.89043 18.2746 9.23179C18.3709 9.57322 18.5348 9.89174 18.7565 10.1686C18.9966 10.4364 19.2876 10.6533 19.6129 10.8066C19.9381 10.9599 20.2907 11.0465 20.6499 11.0612C22.2652 11.1925 23.9114 11.2174 25.503 11.243C26.3562 11.2561 27.2094 11.2699 28.0574 11.2981C28.6619 11.3191 29.2631 11.373 29.9608 11.4353L30.4322 11.4773L5.25902 43.2618C5.25902 42.7439 5.26407 42.2563 5.26735 41.7923C5.27654 40.3122 5.28526 39.0356 5.24588 37.7735L5.23339 37.3797C5.1566 34.9631 5.07726 32.465 4.80619 30.0215C4.65252 29.4314 4.30897 28.9081 3.82873 28.5323C3.64848 28.3585 3.47792 28.1751 3.31757 27.9829L3.08779 27.6941L2.35582 28.3872C1.93117 28.7856 1.49213 29.1971 1.08192 29.6303C0.896798 29.884 0.811098 30.1965 0.8406 30.5091C0.85307 32.0949 0.854991 33.6806 0.856303 35.2663C0.860898 39.327 0.865561 43.5263 1.05852 47.6507C1.12416 49.1098 1.40229 49.9479 1.98118 50.452C2.6408 50.9329 3.45528 51.152 4.26715 51.067Z" fill="black"/>
</g>
<defs>
<clipPath id="clip0">
<rect width="124.704" height="136.518" fill="white" transform="translate(0.736206 0.70105)"/>
</clipPath>
</defs>
</svg>

<svg xmlns="http://www.w3.org/2000/svg" width="126" height="138" fill="none" viewBox="0 0 126 138"><g fill="#000" clip-path="url(#a)"><path d="M124.804 70.172a34.8 34.8 0 0 0-2.297-10.211 10.8 10.8 0 0 0-11.776-7.252 20.3 20.3 0 0 0-5.046 1.487 57 57 0 0 1-2.106.788 12.58 12.58 0 0 0-8.555-7.294c-4.611-1.235-8.41-.216-11.289 3.026-1.546-2.486-3.65-5.005-7.345-5.645-3.154-.549-5.71.673-8.507 2.737q-.135-1.968-.256-3.86c-.209-3.207-.405-6.236-.708-9.28a622 622 0 0 1-.357-3.699c-.511-5.382-1.041-10.948-2.017-16.346-.517-2.86-1.834-6.01-4.027-9.628-2.37-3.907-6.364-4.759-10.682-2.276-3.924 2.257-4.853 6.142-5.224 9.275-.285 2.405-.328 4.871-.375 7.256l-.023 1.175q-.06 2.812-.126 5.627c-.147 6.425-.3 13.069-.298 19.605 0 4.867.152 9.641.31 14.696q.097 2.974.178 6.007l-.112-.093c-.44-.364-.833-.688-1.242-.989-6.648-4.894-13.776-6.639-21.181-5.185a9.66 9.66 0 0 0-7.342 5.895 10.3 10.3 0 0 0 1.409 9.794 23.8 23.8 0 0 0 3.618 3.735l.424.38a52.9 52.9 0 0 1 12.005 15.062c4.156 8.015 8.84 16.487 14.32 25.9 1.425 2.449 3.71 4.458 5.54 5.935 3.454 2.785 7.585 5.064 13 7.173a41.1 41.1 0 0 0 15.052 2.855 50.5 50.5 0 0 0 17.1-3.204 36.6 36.6 0 0 0 11.041-6.546c5.911-4.913 10.03-11.623 12.593-20.514a111.8 111.8 0 0 0 4.301-36.386m-68.885 50.205a11.9 11.9 0 0 1-3.045-2.923 104 104 0 0 1-5.663-9.104 366 366 0 0 1-7.901-15.59c-3.998-8.358-9.12-14.945-15.655-20.137a11.2 11.2 0 0 1-2.725-3.198 2.54 2.54 0 0 1-.285-2.083 3.14 3.14 0 0 1 1.825-1.773 10 10 0 0 1 4.088-.853c.768.003 1.534.079 2.287.227 5.744 1.101 9.583 3.246 12.077 6.75a17.3 17.3 0 0 1 1.983 4.41c.15.435.298.868.453 1.292.559 1.525 1.342 2.934 3.274 2.934h.04c1.718-.017 2.91-1.058 3.357-2.93.248-1.003.369-2.033.36-3.066-.131-7.957-.303-16.437-.517-25.922-.04-1.814-.114-3.658-.184-5.441-.135-3.4-.274-6.915-.197-10.362.15-6.595.6-13.297 1.038-19.777l.048-.71c.229-3.399 1.444-5.096 4.057-5.644 2.087 1.398 3.359 3.627 3.995 7a115 115 0 0 1 1.805 13.615c.482 7.14.839 14.41 1.181 21.441q.225 4.569.46 9.136c.087 1.66.467 3.426 2.621 3.93 2.133.499 3.281-1.308 4.042-2.937q.274-.591.545-1.182a29.3 29.3 0 0 1 3.014-5.518c1.05-1.39 2.385-2.067 3.651-1.857 1.293.212 2.358 1.307 2.921 3a17.6 17.6 0 0 1 .644 4.449c.028.479.057.956.097 1.428q.027.6-.055 1.194a4.4 4.4 0 0 0 .065 1.887 4.06 4.06 0 0 0 2.06 2.227 2.37 2.37 0 0 0 1.827.03 2.6 2.6 0 0 0 1.372-1.457 9.5 9.5 0 0 0 .41-1.383 10 10 0 0 1 .343-1.195c.197-.508.382-1.023.569-1.538a31 31 0 0 1 1.954-4.594c1.107-1.962 2.45-2.476 4.787-1.832 2.974.819 4.844 2.677 5.406 5.376.286 1.592.447 3.204.483 4.821q.034.74.079 1.478c.096 1.53.46 3.165 2.445 3.676 1.962.508 3.007-.731 3.846-2.146q.305-.516.604-1.04a28 28 0 0 1 2.04-3.204c1.528-1.978 3.351-2.976 5-2.734 1.564.227 2.88 1.53 3.707 3.667a33.5 33.5 0 0 1 2.461 10.619c.323 8.524-.736 17.438-3.437 28.902a41.2 41.2 0 0 1-6.636 14.49c-3.57 5.01-8.807 8.532-16.01 10.764-12.892 3.994-25 1.828-37.011-6.613"/><path d="M4.267 51.067q.274 0 .584-.014c4.479-.213 9.02-.6 13.412-.975l2.691-.229c.9-.075 1.893-.227 2.423-.782.36-.377 1.532-1.706 1.474-2.978-.037-.846-1.325-1.935-2.258-2.13a9 9 0 0 0-3.741.287l-.781.177a25.5 25.5 0 0 1-8.058.887l25.708-30.657q.14.996.263 1.91c.24 1.798.448 3.348.787 4.905.547 2.5 1.854 3.86 3.47 3.657 1.208-.156 2.57-1.055 2.194-4.452-.47-4.235-1.145-8.442-1.742-11.998-.46-2.735-1.128-3.271-3.938-3.176-3.408.113-6.87.268-10.22.419q-2.786.124-5.573.243c-.91.038-2.606.108-2.766 2.02a2.65 2.65 0 0 0 .56 1.988 2.7 2.7 0 0 0 1.894.892c1.615.132 3.261.156 4.853.182.853.013 1.706.027 2.554.055.605.021 1.206.075 1.904.137l.471.042L5.26 43.262q.002-.775.008-1.47c.01-1.48.018-2.756-.021-4.019l-.013-.393c-.076-2.417-.156-4.915-.427-7.359a2.78 2.78 0 0 0-.977-1.489 7 7 0 0 1-.511-.55l-.23-.288-.732.693c-.425.399-.864.81-1.274 1.243-.185.254-.27.567-.241.88.012 1.585.014 3.17.015 4.756.005 4.061.01 8.26.203 12.385.065 1.459.343 2.297.922 2.801.66.48 1.474.7 2.286.615"/></g><defs><clipPath id="a"><path fill="#fff" d="M.736.701H125.44V137.22H.736z"/></clipPath></defs></svg>
